img/svg/twitter.svg

<svg width="16" height="16" viewBox="0 0 16 16" fill="none" xmlns="http://www.w3.org/2000/svg">
<path d="M14.6352 4.29986C14.7244 4.19597 14.6082 4.06022 14.4763 4.10884C14.182 4.21738 13.9131 4.28898 13.5154 4.33317C14.0046 4.06077 14.2321 3.67143 14.4172 3.19456C14.4618 3.07954 14.3272 2.97517 14.2112 3.03012C13.7404 3.25338 13.2323 3.41902 12.698 3.51688C12.17 2.99353 11.4173 2.6665 10.5846 2.6665C8.98565 2.6665 7.68905 3.87235 7.68905 5.35928C7.68905 5.57038 7.71492 5.776 7.76372 5.97287C5.46528 5.86578 3.41579 4.88256 1.9919 3.37491C1.89431 3.27158 1.71722 3.2853 1.65646 3.41132C1.49435 3.74756 1.40398 4.12056 1.40398 4.51328C1.40398 5.44733 1.91499 6.27146 2.6918 6.75437C2.3435 6.7439 2.01041 6.67604 1.70345 6.56086C1.554 6.5048 1.38268 6.60333 1.40276 6.75404C1.55691 7.9113 2.49386 8.86604 3.70324 9.09164C3.46038 9.15344 3.20458 9.18624 2.93996 9.18624C2.8758 9.18624 2.81219 9.18424 2.74916 9.18037C2.58878 9.17044 2.45844 9.3139 2.5272 9.45117C2.98087 10.3566 3.96048 10.9888 5.10044 11.0084C4.10958 11.7308 2.86116 12.1612 1.50453 12.1612C1.33726 12.1612 1.2655 12.3763 1.4139 12.4492C2.56005 13.0126 3.86529 13.3332 5.25216 13.3332C10.5781 13.3332 13.4901 9.23004 13.4901 5.67154C13.4901 5.55506 13.4872 5.43858 13.4819 5.32319C13.9142 5.03277 14.3028 4.68743 14.6352 4.29986Z" fill="#111928"/>
</svg>

<?xml version="1.0" encoding="utf-8"?><svg width="16" height="16" xmlns="http://www.w3.org/2000/svg" viewBox="0 0 16 16"><path d="M14.635 4.3c.09-.104-.027-.24-.159-.191-.294.108-.563.18-.96.224.489-.272.716-.662.901-1.138.045-.115-.09-.22-.206-.165-.47.223-.979.389-1.513.487a2.997 2.997 0 0 0-2.113-.85c-1.6 0-2.896 1.205-2.896 2.692 0 .211.026.417.075.614-2.299-.107-4.348-1.09-5.772-2.598-.098-.103-.275-.09-.336.036-.162.337-.252.71-.252 1.102 0 .934.511 1.758 1.288 2.241a3.074 3.074 0 0 1-.989-.193c-.149-.056-.32.042-.3.193.154 1.157 1.09 2.112 2.3 2.338a3.092 3.092 0 0 1-.954.088c-.16-.01-.29.134-.222.271.454.906 1.433 1.538 2.573 1.557a6.09 6.09 0 0 1-3.595 1.153c-.168 0-.24.215-.091.288a8.685 8.685 0 0 0 3.838.884c5.326 0 8.238-4.103 8.238-7.661 0-.117-.003-.233-.008-.349.432-.29.82-.636 1.153-1.023Z"/></svg>
